X:1
T:Polska ur Petter Dufvas notbok (Ma6-1)
R:Polska
O:Verkelbäck, Småland
B:Petter Dufvas notbok
S:Petter Dufva
N:Smus Ma6 bild 4
Z:Till abc Jonas Brunskog
M:3/4
L:1/8
K:C
G2 G2 G2|A2 A2 AB|c2 dc BG|c2 C4:|
|:e2 e2 e2|d2 d2 d2|cB A2 Ac|BA G2 G2|
c2 cd cB|A2 F2 AB | c2 dc BG|c2 C4:|

